X:21
T:Quand les moutons...
R:Bourre  3 temps
A:Massif Central
O:France
M:3/4
L:1/4
Q:1/4=240
K:F
cdc|B2G|A2B|c2c|cdc|B2G|A2B|c3:|
|:FGc|B2G|A2G|F2E|FGc|B2G|AG2|F3:||
